app/assets/images/icons/ticket.svg

<?xml version="1.0" encoding="UTF-8" standalone="no"?>
<svg width="30px" height="30px" viewBox="0 0 30 30" version="1.1" xmlns="http://www.w3.org/2000/svg" xmlns:xlink="http://www.w3.org/1999/xlink">
    <!-- Generator: Sketch 3.7.2 (28276) - http://www.bohemiancoding.com/sketch -->
    <title>ticket</title>
    <desc>Created with Sketch.</desc>
    <defs></defs>
    <g id="Icons" stroke="none" stroke-width="1" fill="none" fill-rule="evenodd">
        <g id="ticket" fill="#050505">
            <path d="M21.2132034,22.627417 L22.627417,24.0416306 L28.991378,17.6776695 C29.7724266,16.8966209 29.7724266,15.630291 28.991378,14.8492424 L14.1421356,8.8817842e-15 C12.5800385,1.56209717 10.0473785,1.56209717 8.48528137,5.32907052e-15 L3.91242594e-13,8.48528137 C1.56209717,10.0473785 1.56209717,12.5800385 3.90798505e-13,14.1421356 L14.8492424,28.991378 C15.630291,29.7724266 16.8966209,29.7724266 17.6776695,28.991378 L22.627417,24.0416306 L21.2132034,22.627417 L16.9705627,26.8700577 C16.5800385,27.260582 15.9468735,27.260582 15.5563492,26.8700577 L5.65685425,16.9705627 L6.36396103,16.263456 C6.75448532,15.8729317 6.75448532,15.2397667 6.36396103,14.8492424 C5.97343674,14.4587181 5.34027176,14.4587181 4.94974747,14.8492424 L4.24264069,15.5563492 L2.47487373,13.7885822 C3.18198052,13.0814755 3.18198052,9.54594155 2.47487373,8.83883476 C2.47487373,8.83883476 8.83883478,2.47487375 8.83883476,2.47487373 C9.54594155,3.18198052 13.0814755,3.18198052 13.7885822,2.47487373 L15.5563492,4.24264069 L14.8492424,4.94974747 C14.4587181,5.34027176 14.4587181,5.97343674 14.8492424,6.36396103 C15.2397667,6.75448532 15.8729317,6.75448532 16.263456,6.36396103 L16.9705627,5.65685425 L26.8700577,15.5563492 C27.260582,15.9468735 27.260582,16.5800385 26.8700577,16.9705627 L21.2132034,22.627417 L21.2132034,22.627417 Z M9.19238816,13.4350288 C8.80186386,13.8255531 8.16869888,13.8255531 7.77817459,13.4350288 C7.3876503,13.0445046 7.3876503,12.4113396 7.77817459,12.0208153 L8.48528137,11.3137085 C8.87580567,10.9231842 9.50897064,10.9231842 9.89949494,11.3137085 C10.2900192,11.7042328 10.2900192,12.3373978 9.89949494,12.7279221 L9.19238816,13.4350288 L9.19238816,13.4350288 L9.19238816,13.4350288 L9.19238816,13.4350288 Z M12.7279221,9.89949494 C12.3373978,10.2900192 11.7042328,10.2900192 11.3137085,9.89949494 C10.9231842,9.50897064 10.9231842,8.87580567 11.3137085,8.48528137 L12.0208153,7.77817459 C12.4113396,7.3876503 13.0445046,7.3876503 13.4350288,7.77817459 C13.8255531,8.16869888 13.8255531,8.80186386 13.4350288,9.19238816 L12.7279221,9.89949494 L12.7279221,9.89949494 L12.7279221,9.89949494 L12.7279221,9.89949494 Z" id="Rectangle-94"></path>
        </g>
    </g>
</svg>

<?xml version="1.0" encoding="UTF-8" standalone="no"?>
<svg width="30" height="30" viewBox="0 0 30 30" xmlns="http://www.w3.org/2000/svg">
  <path d="M21.213 22.627l1.414 1.415 6.364-6.364a2 2 0 0 0 0-2.829L14.142 0a4 4 0 0 1-5.657 0L0 8.485a4 4 0 0 1 0 5.657l14.85 14.85a2 2 0 0 0 2.828 0l4.95-4.95-1.415-1.415-4.242 4.243a1 1 0 0 1-1.415 0l-9.9-9.9.708-.707A1 1 0 0 0 4.95 14.85l-.707.707-1.768-1.767c.707-.708.707-4.243 0-4.95l6.364-6.364c.707.707 4.242.707 4.95 0l1.767 1.768-.707.707a1 1 0 1 0 1.414 1.414l.708-.707 9.9 9.9a1 1 0 0 1 0 1.414l-5.658 5.656zm-12.02-9.192a1 1 0 0 1-1.415-1.414l.707-.707A1 1 0 1 1 9.9 12.728l-.707.707zm3.535-3.536a1 1 0 0 1-1.414-1.414l.707-.707a1 1 0 1 1 1.414 1.414l-.707.707z" fill="#050505" fill-rule="evenodd"/>
</svg>
